X: 28473
T: Muñeira De Batribán
R: jig
M: 6/8
K: Cmajor
CEE|:C2 E CDE|F2 D B,DD|B,2 D B,DD
A2 G CEE|C2 E CDE|FED CB,D|A2 G FEF|
A2 G cBA|GAG FED|1 C3 CEE:|2 C3 cdc|
|:BAG ABA|GFE .G2 G|GAG FEF|A2 G cdc|
BAG ABA|GFE .G2 G|GAG FED|1 C3 cdc:|
[2 C3 CDE|:.F.GF FGF|EDC CEF|EDC B,CD|
A2 G CDE|.F.GF FGF|EDC CEF|EDC B,CD|
[1 C3 CDE:|2 C6-|C2||

